X:1
T:Roll the Woodpile Down
M:4/4
L:1/4
K:F
 CD/2-E/2 F G/2A/2| B A G2| G G2 A| G/2F/2 D2 C| CD/2-E/2 F G/2A/2|\
 B A G F/2G/2| A3/2 F/2 D C| F3 z| d c3| d c2 f| d/2 c A/2 F G| D3 D|\
 C D/2E/2 F G/2A/2| B A G F/2G/2| A3/2 D/2 D C| F z3|
